X:1
T:Title
%%score { 1 | 2 }
L:1/8
M:4/4
K:Eb
V:1 treble nm="Grand Piano"
V:2 bass 
V:1
 z4 z2[Q:1/4=100] [B,GB]>[B,FA] | [B,EG]2 [B,EG]2 [B,GB]2 [B,FA][B,EG] | %2
 [DF]2 [DF]2 [FA]2 [EG][DF] | [EG][FA][GB][Ac] [GB]2 [EG]2 |[M:3/4] [EG]4 [DF]2 | %5
[M:1/4] [DB]>[FA] |[M:4/4] [EG]2 [EG]2 [GB]2 [FA][EG] | [DF]2 [DF]2 [FA]2 [DB][FA] | %8
 [EG][FA][GB][Ac] [GB]2 [EG]2 |[M:3/4] [DF]4 E2 |[M:1/4] [Ge]>[Bd] |[M:4/4] c4 A2 e>c | %12
 [GB]4 [EG]2 [FA]>[EG] | [DF][DF][DF][DF] [DF][FA][EG][DF] |[M:3/4] G2 c2 B2 |[M:1/4] [Ge]>[Bd] | %16
[M:4/4] c4 A2 e>c | [GB]4 [EG]2 [FA]>[EG] | [DF][DF][DF][DF] [DF][FA] [EG]>[DF] |[M:3/4] E6 |] %20
V:2
 z4 z2 E,>E, | E,2 E,2 E,2 D,E, | [B,,B,]2 [B,,B,]2 [B,,B,]2 [B,,B,][B,,B,] | %3
 [E,B,][E,B,][E,E][E,E] [E,E]2 [E,B,]2 |[M:3/4] [B,,B,]4 [B,,B,]2 |[M:1/4] [B,,B,]>[B,,B,] | %6
[M:4/4] [E,B,]2 [E,B,]2 [E,E]2 [D,B,][E,B,] | [B,,B,]2 [B,,B,]2 [B,,B,]2 [B,,B,][B,,B,] | %8
 [E,B,][E,B,][E,E][E,E] [E,E]2 [E,B,]2 |[M:3/4] [B,,A,]4 [E,G,]2 |[M:1/4] [E,B,]>[K:treble][G,E] | %11
[M:4/4] [A,EA]4 [A,CE]2 [A,CA]>[A,EA] | [E,E]4 [E,B,]2 [E,B,]>[E,B,] | %13
 [B,,B,][B,,B,][B,,B,][B,,B,] [B,,B,][B,,B,][B,,B,][B,,B,] |[M:3/4] [E,B,E]2 [E,A,E]2 [E,G,E]2 | %15
[M:1/4] [E,B,]>[K:treble][G,E] |[M:4/4] [A,EA]4 [A,CE]2 [A,CA]>[A,EA] | %17
 [E,E]4 [E,B,]2 [D,B,]>[F,B,] | [B,,B,][B,,B,][B,,B,][B,,B,] [B,,B,]2 [B,,B,]>[B,,B,] | %19
[M:3/4] [E,G,]6 |] %20

